X:4120
T:McDonagh's
O:england
R:reel
M:C|
K:D
defd A2~A2|(3Bcd ef g2fe|defd AGAB|=cAGE ED~D2:|
Adfd adfd|Acec fcec|Adfd adfd|eage fddB|
Adfd adfd|cdef g2fe|defg ~a3f|gfeg fdd2||
